design/assets/logos/pipelines.svg

<?xml version="1.0" encoding="UTF-8"?>
<svg width="112px" height="34px" viewBox="0 0 112 34" version="1.1" xmlns="http://www.w3.org/2000/svg" xmlns:xlink="http://www.w3.org/1999/xlink">
    <!-- Generator: Sketch 52.6 (67491) - http://www.bohemiancoding.com/sketch -->
    <title>Artboard</title>
    <desc>Created with Sketch.</desc>
    <g id="Artboard" stroke="none" stroke-width="1" fill="none" fill-rule="evenodd">
        <path d="M43.2017303,17.7663505 L40.4674583,17.7663505 L40.4674583,22.0451953 L43.2017303,22.0451953 C44.7044891,22.0451953 45.4771391,21.1474669 45.4771391,19.9163173 C45.4771391,18.6429901 44.7044891,17.7663505 43.2017303,17.7663505 Z M40.4674583,23.9235529 L40.4674583,28.7034385 L38.2967663,28.7034385 L38.2967663,15.8879929 L43.2435443,15.8879929 C45.8941883,15.8879929 47.6267423,17.2656733 47.6267423,19.9163173 C47.6267423,22.5251473 45.8941883,23.9235529 43.2435443,23.9235529 L40.4674583,23.9235529 Z M48.9254488,28.703184 L48.9254488,19.4361108 L51.0125128,19.4361108 L51.0125128,28.703184 L48.9254488,28.703184 Z M49.9689808,17.9126268 C49.2799588,17.9126268 48.6749284,17.3490468 48.6749284,16.6392996 C48.6749284,15.9295524 49.2799588,15.366336 49.9689808,15.366336 C50.6576392,15.366336 51.2626696,15.9295524 51.2626696,16.6392996 C51.2626696,17.3490468 50.6576392,17.9126268 49.9689808,17.9126268 Z M55.1678427,25.8228902 C55.5230799,26.5533626 56.3160915,27.0544034 57.1720059,27.0544034 C58.7791179,27.0544034 59.7390219,25.7810762 59.7390219,24.069611 C59.7390219,22.3581458 58.7791179,21.0851822 57.1720059,21.0851822 C56.3160915,21.0851822 55.5230799,21.5858594 55.1678427,22.3163318 L55.1678427,25.8228902 Z M55.1678427,32.2517018 L53.0807787,32.2517018 L53.0807787,19.4362562 L55.1678427,19.4362562 L55.1678427,20.2292678 C55.5852555,19.7075018 56.5037091,19.2275498 57.5265159,19.2275498 C60.2396991,19.2275498 61.8260859,21.4815062 61.8260859,24.069611 C61.8260859,26.6577158 60.2396991,28.9120358 57.5265159,28.9120358 C56.5037091,28.9120358 55.5852555,28.4320838 55.1678427,27.9103178 L55.1678427,32.2517018 Z M64.9111955,23.0261154 L69.1064123,23.0261154 C69.0853235,21.8989554 68.4384791,20.9808654 67.1651519,20.9808654 C66.0176303,20.9808654 65.1617159,21.690249 64.9111955,23.0261154 Z M71.0894867,25.8229266 C70.7764271,27.6598338 69.4194719,28.9120722 67.1866043,28.9120722 C64.5981359,28.9120722 62.8030427,26.9500866 62.8030427,24.0907362 C62.8030427,21.3146502 64.6188611,19.2275862 67.1447903,19.2275862 C69.7536203,19.2275862 71.1727511,21.0852186 71.1727511,23.7984018 L71.1727511,24.5495994 L64.8486563,24.5495994 C64.9111955,26.1778002 65.8507379,27.158793 67.1866043,27.158793 C68.1883223,27.158793 68.9395199,26.720655 69.1693151,25.8229266 L71.0894867,25.8229266 Z M72.7321588,28.703184 L72.7321588,15.1361772 L74.8192228,15.1361772 L74.8192228,28.703184 L72.7321588,28.703184 Z M76.8775624,28.703184 L76.8775624,19.4361108 L78.9646264,19.4361108 L78.9646264,28.703184 L76.8775624,28.703184 Z M77.9207308,17.9126268 C77.2320724,17.9126268 76.6266784,17.3490468 76.6266784,16.6392996 C76.6266784,15.9295524 77.2320724,15.366336 77.9207308,15.366336 C78.6097528,15.366336 79.2151468,15.9295524 79.2151468,16.6392996 C79.2151468,17.3490468 78.6097528,17.9126268 77.9207308,17.9126268 Z M81.0331832,19.4361108 L83.1202472,19.4361108 L83.1202472,20.3127504 C83.6209244,19.7284452 84.539378,19.2274044 85.6250876,19.2274044 C87.7328768,19.2274044 88.9018508,20.62581 88.9018508,22.67106 L88.9018508,28.703184 L86.8144232,28.703184 L86.8144232,23.0262972 C86.8144232,21.8780484 86.2512068,21.1268508 85.061144,21.1268508 C84.1634156,21.1268508 83.3496788,21.6904308 83.1202472,22.6088844 L83.1202472,28.703184 L81.0331832,28.703184 L81.0331832,19.4361108 Z M92.4354246,23.0261154 L96.6306414,23.0261154 C96.6095526,21.8989554 95.9627082,20.9808654 94.689381,20.9808654 C93.5418594,20.9808654 92.685945,21.690249 92.4354246,23.0261154 Z M98.6137158,25.8229266 C98.3006562,27.6598338 96.943701,28.9120722 94.7108334,28.9120722 C92.122365,28.9120722 90.3272718,26.9500866 90.3272718,24.0907362 C90.3272718,21.3146502 92.1430902,19.2275862 94.6690194,19.2275862 C97.2778494,19.2275862 98.6969802,21.0852186 98.6969802,23.7984018 L98.6969802,24.5495994 L92.3728854,24.5495994 C92.4354246,26.1778002 93.374967,27.158793 94.7108334,27.158793 C95.7125514,27.158793 96.463749,26.720655 96.6935442,25.8229266 L98.6137158,25.8229266 Z M101.746639,26.0316693 C101.976434,26.8039557 102.665092,27.2006433 103.583546,27.2006433 C104.54345,27.2006433 105.169569,26.8246809 105.169569,26.0942085 C105.169569,25.5931677 104.856873,25.3219221 104.084223,25.1343045 L102.163688,24.6750777 C100.849274,24.3620181 99.8679177,23.6522709 99.8679177,22.1287869 C99.8679177,20.4587721 101.349951,19.2276225 103.37484,19.2276225 C105.545168,19.2276225 106.776681,20.2711545 107.089741,21.9615309 L105.044127,21.9615309 C104.856873,21.3565005 104.314018,20.9390877 103.353751,20.9390877 C102.623278,20.9390877 101.872081,21.2728725 101.872081,22.0033449 C101.872081,22.4207577 102.163688,22.6920033 102.831985,22.8588957 L104.79397,23.3184861 C106.379994,23.6940849 107.173369,24.5914497 107.173369,25.9484049 C107.173369,27.7849485 105.649521,28.9121085 103.562457,28.9121085 C101.391765,28.9121085 99.8893701,27.8267625 99.6177609,26.0316693 L101.746639,26.0316693 Z M108.552067,27.603803 L109.46943,27.603803 L109.46943,27.7688774 L109.104012,27.7688774 L109.104012,28.7040566 L108.917485,28.7040566 L108.917485,27.7688774 L108.552067,27.7688774 L108.552067,27.603803 Z M110.136091,28.7041657 L109.833212,27.9391513 L109.833212,28.7041657 L109.655775,28.7041657 L109.655775,27.6039121 L109.869208,27.6039121 L110.204084,28.4496457 L110.535687,27.6039121 L110.743666,27.6039121 L110.743666,28.7041657 L110.564412,28.7041657 L110.564412,27.9391513 L110.268441,28.7041657 L110.136091,28.7041657 Z" id="product" fill="#FFAE1A"></path>
        <path d="M12.0367053,6.1810364 L22.0735197,16.2178508 L12.0367053,26.2546652 L10.0292697,24.2472296 L18.0586485,16.2178508 L10.0292697,8.188472 L12.0367053,6.1810364 Z M14.0439591,16.2178508 L12.0365235,18.2252864 L10.0294515,16.2178508 L12.0365235,14.2104152 L14.0439591,16.2178508 Z M8.02183412,18.2251046 L10.0292697,20.2325402 L8.02183412,22.2399758 L6.01439852,20.2325402 L4.00732652,18.2251046 L1.99989092,16.217669 L4.00732652,14.2102334 L6.01439852,12.2031614 L8.02183412,10.1957258 L10.0292697,12.2031614 L8.02183412,14.2102334 L6.01439852,16.217669 L8.02183412,18.2251046 Z M16.0512129,2.166347 L30.1028985,16.2180326 L16.0512129,30.2693546 L14.0437773,28.261919 L26.0880273,16.2180326 L14.0437773,4.1737826 L16.0512129,2.166347 Z" id="bug" fill="#FFAE1A"></path>
        <path d="M41.273305,8.7267818 C42.2324818,8.7267818 42.8047882,7.9541318 42.8047882,6.9378698 C42.8047882,5.9074274 42.2324818,5.1344138 41.273305,5.1344138 C40.7439034,5.1344138 40.2857674,5.4492914 40.0712434,5.878703 L40.0712434,7.9824926 C40.2857674,8.4260846 40.7580838,8.7267818 41.273305,8.7267818 Z M41.6743558,3.5887502 C43.534897,3.5887502 44.5940638,5.1344138 44.5940638,6.9378698 C44.5940638,8.7413258 43.534897,10.2724454 41.6743558,10.2724454 C40.9871518,10.2724454 40.3573966,9.9433874 40.0712434,9.5997854 L40.0712434,12.4911326 L38.2965118,12.4911326 L38.2965118,3.731645 L40.0712434,3.731645 L40.0712434,4.2614102 C40.3573966,3.9178082 40.9871518,3.5887502 41.6743558,3.5887502 Z M49.2455259,7.79647484 L49.2455259,3.73179044 L51.0348015,3.73179044 L51.0348015,10.1293324 L49.2600699,10.1293324 L49.2600699,9.54248204 C48.9022875,9.94316924 48.2863491,10.2725908 47.5424235,10.2725908 C46.1112939,10.2725908 45.2953755,9.32795804 45.2953755,7.91100884 L45.2953755,3.73179044 L47.0701071,3.73179044 L47.0701071,7.55322644 C47.0701071,8.22588644 47.3995287,8.68365884 48.1009131,8.68365884 C48.6444951,8.68365884 49.1168115,8.35460084 49.2455259,7.79647484 Z M55.1852591,8.7267818 C56.1444359,8.7267818 56.7167423,7.9541318 56.7167423,6.9378698 C56.7167423,5.9074274 56.1444359,5.1344138 55.1852591,5.1344138 C54.6558575,5.1344138 54.1977215,5.4492914 53.9831975,5.878703 L53.9831975,7.9824926 C54.1977215,8.4260846 54.6700379,8.7267818 55.1852591,8.7267818 Z M55.5863099,3.5887502 C57.4468511,3.5887502 58.5060179,5.1344138 58.5060179,6.9378698 C58.5060179,8.7413258 57.4468511,10.2724454 55.5863099,10.2724454 C54.8991059,10.2724454 54.2693507,9.9433874 53.9831975,9.5997854 L53.9831975,12.4911326 L52.2081023,12.4911326 L52.2081023,3.731645 L53.9831975,3.731645 L53.9831975,4.2614102 C54.2693507,3.9178082 54.8991059,3.5887502 55.5863099,3.5887502 Z M62.2559338,8.7267818 C63.2151106,8.7267818 63.787417,7.9541318 63.787417,6.9378698 C63.787417,5.9074274 63.2151106,5.1344138 62.2559338,5.1344138 C61.7265322,5.1344138 61.2683962,5.4492914 61.0535086,5.878703 L61.0535086,7.9824926 C61.2683962,8.4260846 61.7407126,8.7267818 62.2559338,8.7267818 Z M62.6569846,3.5887502 C64.5175258,3.5887502 65.5766926,5.1344138 65.5766926,6.9378698 C65.5766926,8.7413258 64.5175258,10.2724454 62.6569846,10.2724454 C61.9697806,10.2724454 61.3396618,9.9433874 61.0535086,9.5997854 L61.0535086,12.4911326 L59.278777,12.4911326 L59.278777,3.731645 L61.0535086,3.731645 L61.0535086,4.2614102 C61.3396618,3.9178082 61.9697806,3.5887502 62.6569846,3.5887502 Z M67.7664009,6.23644904 L70.2425169,6.23644904 C70.2283365,5.56378904 69.8272857,5.03402384 69.0975405,5.03402384 C68.4103365,5.03402384 67.9242033,5.44925504 67.7664009,6.23644904 Z M69.0829965,3.58871384 C70.9580817,3.58871384 71.9885241,4.89112904 71.9885241,6.76621424 L71.9885241,7.30979624 L67.7234961,7.30979624 C67.7805813,8.26860944 68.3245269,8.84127944 69.1117209,8.84127944 C69.7131153,8.84127944 70.1563437,8.58385064 70.2996021,8.03954144 L71.9456193,8.03954144 C71.7165513,9.39940544 70.7144697,10.2727726 69.1117209,10.2727726 C67.2511797,10.2727726 66.0058497,8.91290864 66.0058497,6.93783344 C66.0058497,5.00566304 67.2940845,3.58871384 69.0829965,3.58871384 Z M75.6526667,8.69820284 C75.9246395,8.69820284 76.2249731,8.61239324 76.4256803,8.48331524 L76.4256803,10.0577032 C76.1820683,10.1864176 75.7526567,10.2584104 75.2807039,10.2584104 C73.9782887,10.2584104 73.1620067,9.61411124 73.1620067,8.19716204 L73.1620067,5.16292004 L72.1890131,5.16292004 L72.1890131,3.73179044 L73.1620067,3.73179044 L73.1620067,1.99996364 L74.9225579,1.99996364 L74.9225579,3.73179044 L76.3253267,3.73179044 L76.3253267,5.16292004 L74.9225579,5.16292004 L74.9225579,7.96809404 C74.9225579,8.46913484 75.1945307,8.69820284 75.6526667,8.69820284 Z" id="puppet" fill="#090A0A"></path>
    </g>
</svg>

<svg width="112" height="34" xmlns="http://www.w3.org/2000/svg"><g fill="none" fill-rule="evenodd"><path d="M43.202 17.766h-2.735v4.28h2.735c1.502 0 2.275-.899 2.275-2.13 0-1.273-.773-2.15-2.275-2.15zm-2.735 6.158v4.78h-2.17V15.887h4.947c2.65 0 4.383 1.378 4.383 4.028 0 2.61-1.733 4.008-4.383 4.008h-2.777zm8.458 4.78v-9.268h2.088v9.267h-2.088zm1.044-10.791c-.689 0-1.294-.564-1.294-1.274 0-.71.605-1.273 1.294-1.273.689 0 1.294.564 1.294 1.273 0 .71-.605 1.274-1.294 1.274zm5.199 7.91c.355.73 1.148 1.231 2.004 1.231 1.607 0 2.567-1.273 2.567-2.984 0-1.712-.96-2.985-2.567-2.985-.856 0-1.649.5-2.004 1.231v3.507zm0 6.429H53.08V19.436h2.087v.793c.417-.521 1.336-1.001 2.359-1.001 2.713 0 4.3 2.254 4.3 4.842 0 2.588-1.587 4.842-4.3 4.842-1.023 0-1.942-.48-2.36-1.002v4.342zm9.743-9.226h4.195c-.02-1.127-.668-2.045-1.94-2.045-1.148 0-2.004.71-2.255 2.045zm6.178 2.797c-.313 1.837-1.67 3.09-3.902 3.09-2.589 0-4.384-1.963-4.384-4.822 0-2.776 1.816-4.863 4.342-4.863 2.609 0 4.028 1.857 4.028 4.57v.752h-6.324c.062 1.628 1.002 2.609 2.338 2.609 1.001 0 1.753-.438 1.982-1.336h1.92zm1.643 2.88V15.136h2.087v13.567h-2.087zm4.146 0v-9.267h2.087v9.267h-2.087zm1.043-10.79c-.689 0-1.294-.564-1.294-1.274 0-.71.605-1.273 1.294-1.273.689 0 1.294.564 1.294 1.273 0 .71-.605 1.274-1.294 1.274zm3.112 1.523h2.087v.877c.5-.585 1.42-1.086 2.505-1.086 2.108 0 3.277 1.399 3.277 3.444v6.032h-2.088v-5.677c0-1.148-.563-1.9-1.753-1.9-.898 0-1.711.564-1.94 1.483v6.094h-2.088v-9.267zm11.402 3.59h4.196c-.021-1.127-.668-2.045-1.942-2.045-1.147 0-2.003.71-2.254 2.045zm6.179 2.797c-.313 1.837-1.67 3.09-3.903 3.09-2.589 0-4.384-1.963-4.384-4.822 0-2.776 1.816-4.863 4.342-4.863 2.609 0 4.028 1.857 4.028 4.57v.752h-6.324c.062 1.628 1.002 2.609 2.338 2.609 1.002 0 1.753-.438 1.983-1.336h1.92zm3.133.209c.23.772.918 1.169 1.837 1.169.96 0 1.586-.376 1.586-1.107 0-.5-.313-.772-1.086-.96l-1.92-.459c-1.315-.313-2.296-1.023-2.296-2.546 0-1.67 1.482-2.901 3.507-2.901 2.17 0 3.402 1.043 3.715 2.734h-2.046c-.187-.605-.73-1.023-1.69-1.023-.73 0-1.482.334-1.482 1.064 0 .418.292.689.96.856l1.962.46c1.586.375 2.38 1.272 2.38 2.63 0 1.836-1.524 2.963-3.612 2.963-2.17 0-3.673-1.085-3.944-2.88h2.129zm6.805 1.572h.917v.165h-.365v.935h-.187v-.935h-.365v-.165zm1.584 1.1l-.303-.765v.765h-.177v-1.1h.213l.335.846.332-.846h.208v1.1h-.18v-.765l-.296.765h-.132zM12.037 6.181l10.037 10.037-10.037 10.037-2.008-2.008 8.03-8.03-8.03-8.029 2.008-2.007zm2.007 10.037l-2.007 2.007-2.008-2.007 2.008-2.008 2.007 2.008zm-6.022 2.007l2.007 2.008-2.007 2.007-2.008-2.007-2.007-2.008L2 16.218l2.007-2.008 2.007-2.007 2.008-2.007 2.007 2.007-2.007 2.007-2.008 2.008 2.008 2.007zm8.03-16.059l14.05 14.052-14.05 14.051-2.008-2.007 12.044-12.044L14.044 4.174l2.007-2.008z" fill="#FFAE1A"/><path d="M41.273 8.727c.96 0 1.532-.773 1.532-1.79 0-1.03-.573-1.803-1.532-1.803-.53 0-.987.315-1.202.745v2.103c.215.444.687.745 1.202.745zm.401-5.138c1.86 0 2.92 1.545 2.92 3.349 0 1.803-1.06 3.334-2.92 3.334-.687 0-1.317-.329-1.603-.672v2.891h-1.774v-8.76h1.774v.53c.286-.343.916-.672 1.603-.672zm7.572 4.207V3.732h1.789v6.397H49.26v-.587c-.358.401-.974.73-1.718.73-1.43 0-2.247-.944-2.247-2.361v-4.18h1.775v3.822c0 .673.33 1.13 1.03 1.13.544 0 1.017-.328 1.146-.887zm5.94.93c.958 0 1.53-.772 1.53-1.788 0-1.03-.572-1.804-1.53-1.804-.53 0-.988.315-1.203.745v2.103c.215.444.687.745 1.202.745zm.4-5.137c1.86 0 2.92 1.545 2.92 3.349 0 1.803-1.06 3.334-2.92 3.334-.687 0-1.317-.329-1.603-.672v2.891h-1.775v-8.76h1.775v.53c.286-.343.916-.672 1.603-.672zm6.67 5.138c.96 0 1.531-.773 1.531-1.79 0-1.03-.572-1.803-1.531-1.803-.53 0-.988.315-1.202.745v2.103c.214.444.687.745 1.202.745zm.401-5.138c1.86 0 2.92 1.545 2.92 3.349 0 1.803-1.06 3.334-2.92 3.334-.687 0-1.317-.329-1.603-.672v2.891h-1.775v-8.76h1.775v.53c.286-.343.916-.672 1.603-.672zm5.11 2.647h2.476c-.015-.672-.416-1.202-1.145-1.202-.688 0-1.174.415-1.332 1.202zm1.316-2.647c1.875 0 2.906 1.302 2.906 3.177v.544h-4.266c.058.959.602 1.531 1.389 1.531.601 0 1.044-.257 1.188-.801h1.646c-.23 1.36-1.232 2.233-2.834 2.233-1.86 0-3.106-1.36-3.106-3.335 0-1.932 1.288-3.35 3.077-3.35zm6.57 5.11c.272 0 .572-.087.773-.216v1.575c-.244.128-.673.2-1.145.2-1.303 0-2.119-.644-2.119-2.06V5.162h-.973V3.732h.973V2h1.76v1.732h1.403v1.43h-1.402v2.806c0 .501.272.73.73.73z" fill="#090A0A"/></g></svg>
